X:3
T:Boys of Ballisodare
Z: id:dc-slipjig-2
M:9/8
L:1/8
K:G Major
D2G G2A B2d|efe def g3|D2G G2B d2B|ABA B2G E2G|!
D2G G2A B2d|efe def g2a|b2a g2e d2B|ABA B2G E2G:|!
B2d d2B d3|B2d def g3|B2d d2B d2B|ABA B2G E2G|!
B2d d2B d3|B2d def g2a|b2a g2e d2B|ABA B2G E2G:|!

